public/linkedin.svg

<svg width="50" height="50" viewBox="0 0 50 50" fill="none" xmlns="http://www.w3.org/2000/svg">
<path d="M10.0513 0.75C4.74727 0.75 0.40625 5.09092 0.40625 10.395V40.3253C0.40625 45.6293 4.74717 49.9688 10.0513 49.9688H39.9815C45.2856 49.9688 49.625 45.6294 49.625 40.3253V10.395C49.625 5.09102 45.2856 0.75 39.9815 0.75H10.0513ZM12.4772 8.87208C15.0203 8.87208 16.5868 10.5416 16.6352 12.7362C16.6352 14.8824 15.0202 16.5988 12.428 16.5988H12.3803C9.88549 16.5988 8.27302 14.8825 8.27302 12.7362C8.27302 10.5417 9.93429 8.87208 12.4771 8.87208H12.4772ZM34.393 19.1293C39.284 19.1293 42.9505 22.3261 42.9505 29.1958V42.0204H35.5175V30.0556C35.5175 27.049 34.4418 24.9978 31.7518 24.9978C29.6983 24.9978 28.4743 26.3803 27.9369 27.7159C27.7406 28.1938 27.6923 28.8611 27.6923 29.5296V42.0204H20.2593C20.2593 42.0204 20.3569 21.7525 20.2593 19.6538H27.6938V22.8212C28.6816 21.2972 30.4484 19.1293 34.393 19.1293V19.1293ZM8.71146 19.6555H16.1444V42.0205H8.71146V19.6555Z" fill="white"/>
</svg>

<svg xmlns="http://www.w3.org/2000/svg" width="50" height="50" fill="none"><path fill="#fff" d="M10.051.75C4.747.75.406 5.09.406 10.395v29.93c0 5.304 4.341 9.644 9.645 9.644h29.93c5.305 0 9.644-4.34 9.644-9.644v-29.93c0-5.304-4.34-9.645-9.644-9.645h-29.93Zm2.426 8.122c2.543 0 4.11 1.67 4.158 3.864 0 2.146-1.615 3.863-4.207 3.863h-.048c-2.495 0-4.107-1.716-4.107-3.863 0-2.194 1.661-3.864 4.204-3.864ZM34.393 19.13c4.891 0 8.557 3.197 8.557 10.067V42.02h-7.433V30.056c0-3.007-1.075-5.058-3.765-5.058-2.054 0-3.278 1.382-3.815 2.718-.196.478-.245 1.145-.245 1.814v12.49H20.26s.098-20.268 0-22.366h7.435v3.167c.988-1.524 2.754-3.692 6.699-3.692Zm-25.682.526h7.433V42.02H8.711V19.655Z"/></svg>
